X: 36673
T: Shaving Baby With A Spoon
R: slip jig
M: 9/8
K: Dmixolydian
D2 A A2 D B2 c|G2 E ~E2 G2 E|D2 A A2 D B2 c|G2 E c2 E D2 A|
D2 A A2 D B2 c|G2 E ~E2 G2 E|D2 A A2 D B2 D|G2 E c2 E D3||
B2 G ~G3 B2 G|A2 D ~D3 d2 c|A2 B B2 G D2 G|FGA d2 ^c d2 =c|
B2 G ~G3 B2 G|A2 D ~D3 d2 c|B2 D A2 D G2 D|F2 A A2 F A3||

